X:50
T:Rocky Road to Dublin, The
R:slip jig
D:Tommy Keane & Jacqueline McCarthy: The Wind among the Reeds.
D:Seamus Ennis: The Pure Drop
H:See also #6
Z:id:hn-slipjig-50
M:9/8
K:Ador
efe d2B A2G|E2A A3 B2d|efe d2B A2c|B2G G2G Bcd|
efe d2B A2G|E2A A3 B2d|efg fga g2e|d2B G2A B2d:|
|:e2a a2f g3|e2a a2A Bcd|e2a a2f g2e|d2B G2A Bcd|
e2a a2f g3|e2a a2e g2a|a2g a2f g2e|d2B G2A Bcd:|
|:gfe d2B c2A|e2A c2A Bcd|efe d2B c2A|B2G G2G B2d|
efe d2B c2A|e2A c2A Bcd|efg fga g2e|d2B G2A Bcd:|
